app/dist/common/images/tibet-mineral-devm.svg

<svg height="18" viewBox="0 0 18 18" width="18" xmlns="http://www.w3.org/2000/svg"><path d="m0 0h18v18h-18z" fill="#f0f3fa"/><path d="m2 7v-1h3v1h-1v5h-1v-5zm11.64 5h-1.64v-6h1.68c1.65 0 2.32 1.55 2.32 3 0 1.47-.68 3-2.36 3zm-.64-1h.6c1.18 0 1.4-.99 1.4-2 0-.99-.22-2-1.37-2h-.63zm-5.94-5h-1.06v6h1v-3.54h.04l1.16 3.52h.61l1.19-3.51v3.53h1v-6h-1.05l-1.42 3.71h-.05z"/></svg>

<!-- by TradingView --><svg width="18" height="18" viewBox="0 0 18 18" xmlns="http://www.w3.org/2000/svg"><path fill="#F0F3FA" d="M0 0h18v18H0z"/><path d="M2 7V6h3v1H4v5H3V7H2Zm11.64 5H12V6h1.68C15.33 6 16 7.55 16 9c0 1.47-.68 3-2.36 3ZM13 11h.6c1.18 0 1.4-.99 1.4-2 0-.99-.22-2-1.37-2H13v4ZM7.06 6H6v6h1V8.46h.04l1.16 3.52h.61L10 8.47H10V12h1V6H9.95L8.53 9.71h-.05L7.06 6Z"/></svg>
